assets/img/diem_digital_logo.svg

<?xml version="1.0" encoding="UTF-8" standalone="no"?>
<svg width="310px" height="103px" viewBox="0 0 310 103" version="1.1" xmlns="http://www.w3.org/2000/svg" xmlns:xlink="http://www.w3.org/1999/xlink" xmlns:sketch="http://www.bohemiancoding.com/sketch/ns">
    <title>Diem Digital</title>
    <defs></defs>
    <g id="Logo" stroke="none" stroke-width="1" fill="none" fill-rule="evenodd" sketch:type="MSPage">
        <g id="Diem-Digital" sketch:type="MSArtboardGroup">
            <path d="M267.275,98 L267.275,63.307 L274.738,63.307 L274.738,92.875 L306.777,92.875 L306.777,98 L267.275,98 Z M251.004,98 L230.636,70.058 L209.932,98 L201.628,98 L227.888,63.307 L233.329,63.307 L259.421,98 L251.004,98 Z M178.848,98 L178.848,68.432 L158.144,68.432 L158.144,63.307 L206.453,63.307 L206.453,68.432 L186.31,68.432 L186.31,98 L178.848,98 Z M141.253,63.307 L148.717,63.307 L148.717,97.94 L141.253,97.94 L141.253,63.307 Z M98.33,98 C88.94,98 84.247,95.503 84.247,90.509 L84.247,70.797 C84.247,65.804 88.94,63.307 98.33,63.307 L129.247,63.307 L129.247,68.432 L98.33,68.432 C93.916,68.432 91.71,69.221 91.71,70.797 L91.71,90.509 C91.71,92.086 93.916,92.875 98.33,92.875 L115.78,92.875 C120.194,92.875 122.401,92.12 122.401,90.608 L122.401,79.077 L129.865,79.077 L129.865,90.608 C129.865,95.536 125.168,98 115.78,98 L98.33,98 Z M65.282,63.307 L72.745,63.307 L72.745,97.94 L65.282,97.94 L65.282,63.307 Z M46.317,73.557 C46.317,72.571 46.205,71.75 45.981,71.093 C45.755,70.437 45.372,69.91 44.83,69.516 C44.287,69.122 43.558,68.843 42.642,68.678 C41.724,68.514 40.575,68.432 39.191,68.432 L10.463,68.432 L10.463,92.875 L39.191,92.875 C40.575,92.875 41.724,92.793 42.642,92.628 C43.558,92.464 44.287,92.202 44.83,91.84 C45.372,91.479 45.755,90.986 45.981,90.362 C46.205,89.738 46.317,88.966 46.317,88.045 L46.317,73.557 Z M3,98 L3,63.307 L39.191,63.307 C41.997,63.307 44.334,63.521 46.205,63.948 C48.074,64.375 49.572,65.016 50.694,65.87 C51.815,66.724 52.609,67.791 53.079,69.073 C53.545,70.354 53.779,71.849 53.779,73.557 L53.779,88.095 C53.779,89.738 53.545,91.175 53.079,92.407 C52.609,93.639 51.815,94.666 50.694,95.487 C49.572,96.308 48.074,96.933 46.205,97.359 C44.334,97.787 41.997,98 39.191,98 L3,98 L3,98 Z" id="Digital" fill="#1A1918" sketch:type="MSShapeGroup"></path>
            <path d="M233.582,3.46 L242.063,3.46 L270.654,46.723 L299.109,3.46 L306.906,3.46 L306.906,56.429 L298.15,56.429 L298.15,19.636 L274.006,56.429 L266.551,56.429 L242.336,19.711 L242.336,56.429 L233.582,56.429 L233.582,3.46 Z M184.949,32.352 L184.949,48.604 L225.373,48.604 L225.373,56.429 L175.852,56.429 L175.852,3.46 L225.373,3.46 L225.373,11.285 L184.949,11.285 L184.949,24.527 L223.322,24.527 L223.322,32.352 L184.949,32.352 Z M157.589,3.46 L166.686,3.46 L166.686,56.429 L157.589,56.429 L157.589,3.46 Z M129.066,48.604 C136.271,48.604 139.874,46.448 139.874,42.133 L139.874,17.906 C139.874,13.493 136.271,11.285 129.066,11.285 L96.097,11.285 L96.097,48.604 L129.066,48.604 Z M87,3.46 L129.066,3.46 C142.336,3.46 148.971,8.275 148.971,17.906 L148.971,42.133 C148.971,51.664 142.336,56.429 129.066,56.429 L87,56.429 L87,3.46 L87,3.46 Z" id="DIEM" fill="#7C1C1F" sketch:type="MSShapeGroup"></path>
            <path d="M60,3.46 L78,3.46 L78,11.46 L60,11.46 L60,3.46 Z M60,12.46 L78,12.46 L78,20.46 L60,20.46 L60,12.46 Z M60,21.46 L78,21.46 L78,29.46 L60,29.46 L60,21.46 Z M60,30.46 L78,30.46 L78,38.46 L60,38.46 L60,30.46 Z M60,39.46 L78,39.46 L78,47.46 L60,47.46 L60,39.46 Z M60,48.46 L78,48.46 L78,56.46 L60,56.46 L60,48.46 Z M41,30.46 L59,30.46 L59,38.46 L41,38.46 L41,30.46 Z M41,39.46 L59,39.46 L59,47.46 L41,47.46 L41,39.46 Z M41,48.46 L59,48.46 L59,56.46 L41,56.46 L41,48.46 Z M22,21.46 L40,21.46 L40,29.46 L22,29.46 L22,21.46 Z M22,30.46 L40,30.46 L40,38.46 L22,38.46 L22,30.46 Z M22,39.46 L40,39.46 L40,47.46 L22,47.46 L22,39.46 Z M22,48.46 L40,48.46 L40,56.46 L22,56.46 L22,48.46 Z M3.06,30.46 L21,30.46 L21,38.46 L3.06,38.46 L3.06,30.46 Z M3.06,39.46 L21,39.46 L21,47.46 L3.06,47.46 L3.06,39.46 Z M3.06,48.46 L21,48.46 L21,56.46 L3.06,56.46 L3.06,48.46 Z" id="Bars" fill="#1A1918" sketch:type="MSShapeGroup"></path>
        </g>
    </g>
</svg>

<?xml version="1.0" encoding="utf-8"?>
<!-- Generator: Adobe Illustrator 19.2.1, SVG Export Plug-In . SVG Version: 6.00 Build 0)  -->
<svg version="1.1" id="Layer_1" xmlns:sketch="http://www.bohemiancoding.com/sketch/ns"
	 xmlns="http://www.w3.org/2000/svg" xmlns:xlink="http://www.w3.org/1999/xlink" x="0px" y="0px" viewBox="0 0 310 103"
	 style="enable-background:new 0 0 310 103;" xml:space="preserve">
<style type="text/css">
	.st0{fill:#1A1918;}
	.st1{fill:#7C1C1F;}
</style>
<title>Diem Digital</title>
<g id="Logo" sketch:type="MSPage">
	<g id="Diem-Digital" sketch:type="MSArtboardGroup">
		<path id="Digital" sketch:type="MSShapeGroup" class="st0" d="M267.3,98V63.3h7.5v29.6h32V98H267.3z M251,98l-20.4-27.9L209.9,98
			h-8.3l26.3-34.7h5.4L259.4,98H251z M178.8,98V68.4h-20.7v-5.1h48.3v5.1h-20.1V98H178.8z M141.3,63.3h7.5v34.6h-7.5V63.3z M98.3,98
			c-9.4,0-14.1-2.5-14.1-7.5V70.8c0-5,4.7-7.5,14.1-7.5h30.9v5.1H98.3c-4.4,0-6.6,0.8-6.6,2.4v19.7c0,1.6,2.2,2.4,6.6,2.4h17.4
			c4.4,0,6.6-0.8,6.6-2.3V79.1h7.5v11.5c0,4.9-4.7,7.4-14.1,7.4H98.3z M65.3,63.3h7.5v34.6h-7.5V63.3z M46.3,73.6
			c0-1-0.1-1.8-0.3-2.5c-0.2-0.7-0.6-1.2-1.2-1.6c-0.5-0.4-1.3-0.7-2.2-0.8c-0.9-0.2-2.1-0.2-3.5-0.2H10.5v24.4h28.7
			c1.4,0,2.5-0.1,3.5-0.2c0.9-0.2,1.6-0.4,2.2-0.8c0.5-0.4,0.9-0.9,1.2-1.5c0.2-0.6,0.3-1.4,0.3-2.3V73.6z M3,98V63.3h36.2
			c2.8,0,5.1,0.2,7,0.6c1.9,0.4,3.4,1.1,4.5,1.9c1.1,0.9,1.9,1.9,2.4,3.2c0.5,1.3,0.7,2.8,0.7,4.5v14.5c0,1.6-0.2,3.1-0.7,4.3
			c-0.5,1.2-1.3,2.3-2.4,3.1c-1.1,0.8-2.6,1.4-4.5,1.9c-1.9,0.4-4.2,0.6-7,0.6H3L3,98z"/>
		<path id="DIEM" sketch:type="MSShapeGroup" class="st1" d="M233.6,3.5h8.5l28.6,43.3l28.5-43.3h7.8v53h-8.8V19.6L274,56.4h-7.5
			l-24.2-36.7v36.7h-8.8V3.5z M184.9,32.4v16.3h40.4v7.8h-49.5v-53h49.5v7.8h-40.4v13.2h38.4v7.8H184.9z M157.6,3.5h9.1v53h-9.1V3.5
			z M129.1,48.6c7.2,0,10.8-2.2,10.8-6.5V17.9c0-4.4-3.6-6.6-10.8-6.6h-33v37.3H129.1z M87,3.5h42.1c13.3,0,19.9,4.8,19.9,14.4v24.2
			c0,9.5-6.6,14.3-19.9,14.3H87V3.5L87,3.5z"/>
		<path id="Bars" sketch:type="MSShapeGroup" class="st0" d="M60,3.5h18v8H60V3.5z M60,12.5h18v8H60V12.5z M60,21.5h18v8H60V21.5z
			 M60,30.5h18v8H60V30.5z M60,39.5h18v8H60V39.5z M60,48.5h18v8H60V48.5z M41,30.5h18v8H41V30.5z M41,39.5h18v8H41V39.5z M41,48.5
			h18v8H41V48.5z M22,21.5h18v8H22V21.5z M22,30.5h18v8H22V30.5z M22,39.5h18v8H22V39.5z M22,48.5h18v8H22V48.5z M3.1,30.5H21v8H3.1
			V30.5z M3.1,39.5H21v8H3.1V39.5z M3.1,48.5H21v8H3.1V48.5z"/>
	</g>
</g>
</svg>
